X: 14736
T: Gan Ainm
R: polka
M: 2/4
K: Dmajor
|:e|A>B cd|eA/A/ Ac|BG g>e|d/c/B/A/ G2|
A>B cd|ef/g/ a2|g/f/e/d/ d/g/d/B/|A3:|
|:c|e/A/A/A/ c/A/e/A/|c/A/A/A/ e>d|B/G/G/G/ B/G/d/G/|B/G/G/G/ dc/d/|
e/A/A/A/ c/A/e/A/|c/A/A/A/ a2|g/f/e/d/ d/g/d/B/|A3:|

